X:254
T: FREUT EUCH DES LEBENS
N: B0304
O: Europa, Mitteleuropa, Deutschland
R: Gesellschafts - Lied, Freude
M: 6/8
L: 1/16
K: F
 | A6B2A2B2 | c6f4z2
F6G2F2G2 | A2B2A2G4z2
A6B2A2B2 | c6f6
A6G2F2G2 | F6z4
A2 | c4=B2G2A2B2 | c4A2F4
c2 | c4=B2G2A2B2 | c4A2F4
c2 | d4d2f3ed2 | c4A2f4
c2 | c2d2c2c2=B2A2 | A6G4z2
A6B2A2B2 | c6f4z2
F6G2F2G2 | A2B2A2G4z2
A6B2A2B2 | c6f6
A6G2F2G2 | F6z6

